X:1
T:Hail! Glorious Army
T:Hail! Glorious Army
T:A. F. Myers
T:M. A. Casey, 1899
T:Public Domain Courtesy of the Cyber Hymnal™
T:Public Domain Courtesy of the Cyber Hymnal™
C:A. F. Myers
Z:Public Domain
Z:Courtesy of the Cyber Hymnal™
%%score ( 1 2 ) ( 3 4 )
L:1/8
Q:1/4=100
M:6/8
K:Ab
V:1 treble 
V:2 treble 
V:3 bass 
V:4 bass 
V:1
"^Legato and slow" [Ec]2 [CA] [CA]2 [DB] | [DA]3 [DG]3 | [DF]2 [DF] [Ed]2 [Ed] | [Ec]6 | %4
w: 1.~Christ has called to|ser- vice|Ev- ery youth to-|day;|
w: 2,~Time for prayer most|ear- nest,|You must have, or|fail;|
w: 3.~Heed ye ev- ery|or- der,|Keep up- on the|line,|
 [Ec]2 [CA] [CA]2 [DB] | [DA]3 [DG]3 | [Ge]2 [Gd] [Gc]2 [GB] | [EA]6 | [Fd]2 [Fd] [FA]2 [FB] | %9
w: Hark! the host ad-|vanc- es,|Join them in the|way.|With a vi- sion|
w: Go with trust and|cour- age,|Sa- tan’s host shall|quail.|With the hope of|
w: Grasp the sword of|spir- it,|Vic- to- ry is|thine.|Bless- èd is the|
 [=Ec]3 [Ec]3 | [FB]2 [FB] [=Dc]2 [DB] | E6 | [Ec]2 [CA] [CA]2 [DB] | [DA]3 [EG]3 | %14
w: glor- ious,|Steps are quick and|strong;|From the hills of|glo- ry|
w: tri- umph,|On- ward press to-|day;|Gird thy sac- red|pow- ers,|
w: ser- vice,|Sweet the dai- ly|joy,|Bright the bless- èd|fu- ture,|
 [Ed]2 [Ed] [Ec]2 [DB] | [CA]6 ||"^Refrain" [CE]3 [CF]2 [CE] | [CA]3 [CE]3 | [CE]3 [CF]2 [CE] | %19
w: Christ com- mands the|throng.|Hail! glor- ious|ar- my!|Be strong and|
w: There in- to the|fray.||||
w: While in Christ’s em-|ploy.||||
 [DG]6 | [DE]3 [DF]2 [DE] | [DB]3 [DE]3 | [DE]3 [Ed]2 [Ed] | [Ec]6 | [CE]3 [CF]2 [CE] | %25
w: true,|Laud, praise your|cap- tain,|Who leads you|through.|Keep on re-|
w: ||||||
w: ||||||
 [CA]3 [Ec]3 | [_Ge]2 [Ge] [Fd]2 [Fd] | [DF]6 | [CE]2 [CE] [CA]2 [Ec] | [Ee]6 | %30
w: cruit- ing,|Seek men ev- ery-|where,|Christ will sure- ly|save,|
w: |||||
w: |||||
 [Ee]2 [Fd] [Ec]2 [DB] | [CA]6 |] %32
w: Give them crowns to|wear.|
w: ||
w: ||
V:2
 x6 | x6 | x6 | x6 | x6 | x6 | x6 | x6 | x6 | x6 | x6 | E6 | x6 | x6 | x6 | x6 || x6 | x6 | x6 | %19
 x6 | x6 | x6 | x6 | x6 | x6 | x6 | x6 | x6 | x6 | x6 | x6 | x6 |] %32
V:3
 [A,,A,]2 [A,,E,] [A,,E,]2 [A,,E,] | [B,,E,]3 E,3 | [E,A,]2 [E,A,] [E,G,]2 [E,G,] | [A,,A,]6 | %4
w: ~ ~ ~ ~|~ ~|~ ~ ~ ~|~|
 [A,,A,]2 [A,,E,] [A,,E,]2 [A,,E,] | [B,,E,]3 E,3 | [E,B,]2 [E,B,] [E,E]2 [E,D] | [A,C]6 | %8
w: ~ ~ ~ ~|~ ~|~ ~ ~ ~|~|
 [D,A,]2 [D,A,] [D,D]2 [D,F,] | [C,G,]3 [C,G,]3 | [=D,B,]2 [D,B,] [B,,A,]2 [B,,A,] | [E,G,]6 | %12
w: ~ ~ ~ ~|~ ~|~ ~ ~ ~|~|
 [A,,A,]2 [A,,E,] [A,,E,]2 [A,,E,] | [B,,E,]3 E,3 | E,2 [E,B,] [E,A,]2 [E,G,] | [A,,A,]6 || %16
w: ~ ~ ~ ~|~ ~|~ ~ ~ ~|~|
 [A,,A,]2 [A,,A,] [A,,A,]2 [A,,A,] | [A,,E,]2 [A,,E,] [A,,A,]2 [A,,A,] | %18
w: Hail! the glor- ious,|glor- ious ar- my!|
 [A,,A,]2 [A,,A,] [A,,A,]2 [A,,A,] | [E,B,]2 [E,B,] [E,B,]3 | [E,G,]2 [E,G,] [E,A,]2 [E,G,] | %21
w: Be cour- age- ous,|strong and true,|Laud and praise your,|
 [E,G,]2 [E,G,] [E,G,]2 [E,G,] | [E,G,]2 [E,G,] [E,B,]2 [E,B,] | [A,,A,]2 [A,,A,] [A,,A,]3 | %24
w: praise your cap- tain,|Who will lead you,|lead you thro‘.|
 [A,,A,]2 [A,,A,] [A,,A,]2 [A,,A,] | [A,,A,]2 [A,,A,] [A,,A,]2 [A,,A,] | %26
w: Keep re- cruit- ing,|keep re- cruit- ing,|
 [C,A,]2 [C,A,] [D,A,]2 [D,A,] | [D,A,]2 [D,A,] [D,A,]3 | [E,A,]2 [E,A,] [E,A,]2 [E,A,] | %29
w: Seek men, seek men|ev- ery- where,|Christ will sure- ly,|
 [E,G,]2 [E,G,] [E,G,]3 | [C,A,]2 [D,A,] [E,A,]2 [E,G,] | [A,,A,]6 |] %32
w: Christ will save.|||
V:4
 x6 | x3 E,3 | x6 | x6 | x6 | x3 E,3 | x6 | x6 | x6 | x6 | x6 | x6 | x6 | x3 E,3 | E,2 x4 | x6 || %16
 x6 | x6 | x6 | x6 | x6 | x6 | x6 | x6 | x6 | x6 | x6 | x6 | x6 | x6 | x6 | x6 |] %32

